public/media/logo.svg

<?xml version="1.0" encoding="UTF-8"?>
<svg xmlns="http://www.w3.org/2000/svg" xmlns:xlink="http://www.w3.org/1999/xlink" width="50px" height="53px" viewBox="0 0 50 53" version="1.1">
<g id="surface1">
<path style="fill:none;stroke-width:3;stroke-linecap:butt;stroke-linejoin:miter;stroke:rgb(0%,0%,0%);stroke-opacity:1;stroke-miterlimit:4;" d="M -15.99928 0.00743771 L 16.003355 0.00228651 " transform="matrix(-0.445748,-0.255744,0.100928,-0.17372,32.10198,31.612694)"/>
<path style="fill:none;stroke-width:3;stroke-linecap:butt;stroke-linejoin:miter;stroke:rgb(0%,0%,0%);stroke-opacity:1;stroke-miterlimit:4;" d="M -15.9997 -0.00007 L 15.997538 -0.00007 " transform="matrix(0,0.511275,-0.166667,0,24.999988,19.340396)"/>
<path style="fill:none;stroke-width:3;stroke-linecap:butt;stroke-linejoin:miter;stroke:rgb(0%,0%,0%);stroke-opacity:1;stroke-miterlimit:4;" d="M -15.999103 0.00854744 L 15.99696 0.00402285 " transform="matrix(-0.445748,0.255744,-0.100928,-0.17372,17.838047,31.612694)"/>
<path style="fill-rule:nonzero;fill:rgb(0%,0%,0%);fill-opacity:1;stroke-width:3;stroke-linecap:butt;stroke-linejoin:miter;stroke:rgb(0%,0%,0%);stroke-opacity:1;stroke-miterlimit:4;" d="M 279.914062 224.992425 L 171.351562 287.681105 L 171.351562 238.317897 L 237.164062 200.322614 L 237.164062 124.332048 L 279.914062 99.662237 Z M 150 49.355633 L 84.1875 87.350916 L 41.4375 62.681105 L 150 -0.00757462 L 258.5625 62.681105 L 215.8125 87.350916 Z M 62.835938 200.322614 L 128.648438 238.317897 L 128.648438 287.681105 L 20.085938 224.992425 L 20.085938 99.662237 L 62.835938 124.332048 Z M 62.835938 200.322614 " transform="matrix(0.166667,0,0,0.165625,0,2.677036)"/>
</g>
</svg>

<svg id="ek7coQ8CgUM1" xmlns="http://www.w3.org/2000/svg" xmlns:xlink="http://www.w3.org/1999/xlink" viewBox="0 0 300 320" shape-rendering="geometricPrecision" text-rendering="geometricPrecision"><line x1="-16" y1="0" x2="16" y2="0" transform="matrix(-2.674487-1.544116 0.60557-1.048878 192.61188 190.869095)" fill="none" stroke="#000" stroke-width="3"/><line x1="-16" y1="0" x2="16" y2="0" transform="matrix(0 3.086941-1 0 149.99993 116.772204)" fill="none" stroke="#000" stroke-width="3"/><line x1="-16" y1="0" x2="16" y2="0" transform="matrix(-2.674487 1.544116-.60557-1.048878 107.028284 190.869096)" fill="none" stroke="#000" stroke-width="3"/><path d="M279.90372,224.99997L171.34993,287.67353v-49.35002l65.81542-37.99855v-75.99708l42.73837-24.67501v125.3471ZM149.99993,49.35002L84.18444,87.34861L41.44607,62.6736L149.99993,0L258.55374,62.67357L215.81537,87.34858L149.99993,49.35002ZM62.83451,200.32496l65.81542,37.99855v49.35002L20.09614,224.99997v-125.34705l42.73837,24.67501v75.99703Z" transform="translate(0 16.163235)" stroke="#000" stroke-width="3"/></svg>
